packages/blockchain-info-components/src/Images/img/blue-verified.svg

<svg fill="none" height="33" viewBox="0 0 33 33" width="33" xmlns="http://www.w3.org/2000/svg"><path clip-rule="evenodd" d="m29.1384 13.1896 3.5491 4.0437-3.5491 4.0436.4946 5.3527-5.251 1.1927-2.749 4.6255-4.9455-2.1236-4.9455 2.1381-2.74905-4.6254-5.2509-1.1927.49454-5.3673-3.54909-4.0436 3.54909-4.0582-.49454-5.35276 5.2509-1.17818 2.74905-4.62545 4.9455 2.12363 4.9455-2.12363 2.749 4.62545 5.251 1.19273zm-17.7911 2.6217 3.0513 3.0513 7.7535-7.7461 2.1891 2.1891-9.9429 9.9429-5.25186-5.2518z" fill="#0c6cf2" fill-rule="evenodd"/></svg>

<svg width="33" height="33" viewBox="0 0 33 33" fill="none" xmlns="http://www.w3.org/2000/svg">
<path fill-rule="evenodd" clip-rule="evenodd" d="M29.1384 13.1896L32.6875 17.2333L29.1384 21.2769L29.633 26.6296L24.382 27.8223L21.633 32.4478L16.6875 30.3242L11.742 32.4623L8.99295 27.8369L3.74205 26.6442L4.23659 21.2769L0.6875 17.2333L4.23659 13.1751L3.74205 7.82234L8.99295 6.64416L11.742 2.01871L16.6875 4.14234L21.633 2.01871L24.382 6.64416L29.633 7.83689L29.1384 13.1896ZM11.3473 15.8113L14.3986 18.8626L22.1521 11.1165L24.3412 13.3056L14.3983 23.2485L9.14644 17.9967L11.3473 15.8113Z" fill="#0C6CF2"/>
</svg>
